X:285
T: Smith's Favorite
S: Allan's Irish Fiddler
Z: B.Black
N: simplified version - original in cut time
L: 1/8
M: C|
R: hornpipe
K: A
cB|(3AcA EG Acec|dfBa gebg|aece fdBA|GABc dBGE|
(3AcA EG Acec|dfBa gebg|aecA GBed|(3cBA BG A2 :|
cd|(3efe ce Acea|(3faf df Bdfg|aece fdBA|GABc dBGE|
(3AcA EG Acec|dfBa gebg|aceA GBed|(3cBA BG A2 :|
